X: 40603
T: Ton, The
R: polka
M: 2/4
K: Amajor
|:c/d/|ea ac/d/|ce ec/B/|AA B>B|c/B/c/d/ Bc/d/|
ea ac/d/|ce ec/B/|AA B/^A/B/c/|A2 A:|
|:c/d/|ea fd|ea fd|e>c Ac|B/^A/B/c/ Bc/d/|
ea fd|ea f>d|c/e/c/A/ B/d/B/G/|A2- A:|

